X:1
T:Domine, tu mihi lavas pedes? - Cardoso
T:James Gibb editions
T:#
%%score [ 1 2 3 4 ]
L:1/8
Q:1/4=100
M:4/4
K:G
V:1 treble nm="Soprano" snm="S"
V:2 treble nm="Alto" snm="A"
V:3 treble-8 nm="Tenor" snm="T"
V:4 bass nm="Bass" snm="B"
V:1
"^Manuel Cardoso\n(1566-1650)""^Domine, tu mihi lavas pedes?" z8 | z8 | z8 | A6 A2 | A4 z2 A2 | %5
w: |||Do- mi-|ne, tu|
 c4 B4 |[M:4/4] z2 B2 d4- | d2 c2 B2 B2 | (^c4 d4) | ^c2 e4 e2 | e2 B2 (d3 c | B4) A4 | ^G2 A4 G2 | %13
w: mi- hi,|tu mi\-|* hi la- vas|pe\- *|des? Do- mi-|ne, tu mi\- *|* hi|la- vas pe-|
 ^G4 z4 | z2 B2 c4 | B2 B2 B4 | z2 e2 e2 ^d2 | e8 | e4 z4 | z8 | z8 | z2 B2 B2 c2- | c2 B2 B2 A2 | %23
w: des?|Re- spon-|dit Je- sus,|et di- xit|e-|i:|||si non la\-|* ve- ro ti-|
 B2 A2 ^G4 | z2 B2 ^c2 (d2- | dcBA B2) B2 | (c4 B4- | B2) A2 B2 A2 | z2 d4 c2 | A2 B2 c4 | %30
w: bi pe- des,|non ha- be\-|* * * * * bis|par\- *|* tem me- cum,|non ha-|be- bis par-|
 B2 B4 A2 | z4 z2[Q:1/4=99] A2 |[Q:1/4=97] B2[Q:1/4=95] c2[Q:1/4=93] A2[Q:1/4=91] B2 | %33
w: tem me- cum,|non|ha- be- bis par-|
[Q:1/4=89] ^G2[Q:1/4=87] (A4[Q:1/4=84] G2) |[Q:1/4=84] !fermata!A8 |] %35
w: tem me\- *|cum.|
V:2
 z4 E4- | E2 E2 E4 | z2 E2 G4- | G2 =F2 (E3 D | C2) =F2 E4 | E2 A2 (GFGA |[M:4/4] B2 G2 B2 A2 | %7
w: Do\-|* mi- ne,|tu mi\-|* hi la\- *|* vas pe-|des? tu mi\- * * *|* hi la- vas|
 (^GF/G/ A4 G2) | A4 z2 A2- | A2 A2 A2 E2 | G6 F2 | G2 D2 =F4 | E4 E4- | E4 z4 | z2 ^G2 A4 | %15
w: pe\- * * * *|des? Do\-|* mi- ne, tu|mi- hi|la- vas pe\-|* des?||Re- spon-|
 G2 G2 F4 | z4 z2 A2 | A2 ^G2 A4 | ^G4 z2 E2 | ^G2 A4 G2 | ^G2 F2 E2 F2 | ^G4 z4 | z8 | z4 z2 E2 | %24
w: dit Je- sus,|et|di- xit e-|i: si|non la- ve-|ro ti- bi pe-|des,||non|
 F2 G4 F2 | ^G2 A4 G2 | A2 E4 G2 | G2 F2 E4 | F4) E4- | E2 (G4 FE | D2) B,2 z2 E2 | F2 G4 F2 | %32
w: ha- be- bis|par- tem me-|cum, non ha-|be- bis par\-|* tem|* me\- * *|* cum, non|ha- be- bis|
 G6 F2 | E8 | !fermata!E8 |] %35
w: par- tem|me-|cum.|
V:3
 A6 A2 | A4 z2 A2 | c6 B2 | A2 d2 (^cBcd | ed d4 cB | ABcd e4) |[M:4/4][K:treble-8] d4 z4 | e6 e2 | %8
w: Do- mi-|ne, tu|mi- hi|la- vas pe\- * * *|||des?|Do- mi-|
 e2 e2 (=f4 | e3 d c4) | B2 e2 A2 d2 | d2 B2 d3 d | B2 c2 B4 | B4 z4 | z2 e2 e4 | e2 e2 ^d4 | %16
w: ne, tu mi\-||hi la- vas pe-|des? tu mi- hi|la- vas pe-|des?|Re- spon-|dit Je- sus,|
 z2 B2 c2 A2 | (B4 c4) | B4 z4 | z8 | z8 | z2 e4 e2 | e3 e d2 d2 | d2 c2 B4 | z2 e4 d2 | %25
w: et di- xit|e\- *|i:|||si non|la- ve- ro ti-|bi pe- des,|non ha-|
 B2 c2 d2 e2 | A4 E2 B2 | ^c2 d4 c2 | d2 A2 (A3 B | cB B4 A2) | B2 d4 ^c2 | d2 B2 A2 d2- | %32
w: be- bis par- tem|me- cum, non|ha- be- bis|par- tem me\- *||cum, non ha-|be- bis par- tem|
 d2 e2 d2 d2- | d2 c2 B4 | !fermata!^c8 |] %35
w: * me- cum, par\-|* tem me-|cum.|
V:4
 z8 | z8 | z8 | z4 A,4- | A,2 A,2 A,4 | z4 E,4 |[M:4/4] G,6 F,2 | E,2 A,,2 (E,4 | A,,4) D,4 | %9
w: |||Do\-|* mi- ne,|tu|mi- hi|la- vas pe\-|* des?|
 A,4 A,4 | E,4 D,4 | G,4 D,4 | E,2 A,,2 E,4 | E,4 z4 | z2 E,2 A,4 | E,2 E,2 B,4 | z2 E,2 A,2 F,2 | %17
w: Do- mi-|ne, tu|mi- hi|la- vas pe-|des?|Re- spon-|dit Je- sus,|et di- xit|
 (E,4 A,,4) | E,4 z4 | z8 | z8 | z2 E,2 ^G,2 A,2- | A,2 G,2 G,2 F,2 | G,2 A,2 E,4 | z8 | z8 | %26
w: e\- *|i:|||si non la\-|* ve- ro ti-|bi pe- des,|||
 z2 A,4 G,2 | E,2 F,2 ^G,2 A,2 | D,4 A,,4 | z2 E,4 F,2 | (G,3 F, ^G,2) A,2 | D,8 | G,2 C,2 D,4 | %33
w: non ha-|be- bis par- tem|me- cum,|non ha-|be\- * * bis|par-|tem me- cum,|
 E,8 | !fermata!A,,8 |] %35
w: me-|cum.|

